X:32
T:Seconds to Queens March. JGi.032
M:C
L:1/8
Q:
S:Joshua Gibbons MS,1823,Tealby,Lincs.
N:Last eight bars on six line stave, may indicate error
R:
O:Tealby,Lincolnshire
Z:VMP/R.Greig, 2009
K:F
F4C4|A,2F,>F, A,>A, C>C|f3fe3e|f2gfz4|z8|z8|f2afa2gf|e2e>ee2:|
|:c3g fedc|.f2.c2.f2.c2|e3g fedc|.a2.f2.a2.f2|c4d4|”all on Queen March or second to it”fedcg4|f2f>ge2c>c|A2A>AA2:|
|:”Trio”A4f2a2|a6(3gfc|.A2.A2.c2.c2|gefge2z2|A4f2a2|a6dcBA|B4B2B2|A2A>AA2z2:|
|:EB,EB,z4|ECECz4|ECECz4|C3EC2E2z4|A4f2a2|a4dcBA|G4G2G2|F2F>FF2||

